src/24/actions/mail-mark-read.svg

<svg width="24" height="24" version="1.1" viewBox="0 0 24 24" xmlns="http://www.w3.org/2000/svg">
 <path d="m4 4v3l-2 3v10h20v-10l-2-3v-3zm1 1h14v4.799l-7 4.04-7-4.039zm1 1v0.986l-0.014 0.014h12.028l-0.014-0.014v-0.986zm0 2v1h7v-1zm-3 3h2.078l6.922 3.996 6.922-3.996h2.078v8h-18z" color="#5d656b" fill="currentColor"/>
</svg>

<svg xmlns="http://www.w3.org/2000/svg" viewBox="0 0 24 24"><path d="M4 4v3l-2 3v10h20V10l-2-3V4H4zm1 1h14V9.799l-7 4.04L5 9.8V5zm1 1v.986L5.986 7H18.014L18 6.986V6H6zm0 2v1h7V8H6zm-3 3H5.078L12 14.996 18.922 11H21v8H3v-8z" fill="currentColor" color="#5d656b"/></svg>
